/* XPM */
static char * close_prelight_xpm[] = {
"20 24 7 1",
" 	c #16161E",
".	c #292E42",
"+	c #1A1B26",
"@	c #8E95B6",
"#	c #7C829F",
"$	c #272834",
"%	c #636880",
"                    ",
"....................",
"++++++++++++++++++++",
"++++++++++++++++++++",
"++++++++++++++++++++",
"++++++++++++++++++++",
"++++++++++++++++++++",
"++++++++++++++++++++",
"++++++++++++++++++++",
"++++++@@++++@@++++++",
"++++++##@++@##++++++",
"++++++$##@@##$++++++",
"+++++++$####$+++++++",
"++++++++%##%++++++++",
"+++++++@####@+++++++",
"++++++@##$$##@++++++",
"++++++##$++$##++++++",
"++++++$$++++$$++++++",
"++++++++++++++++++++",
"++++++++++++++++++++",
"++++++++++++++++++++",
"++++++++++++++++++++",
"++++++++++++++++++++",
"++++++++++++++++++++"};
