/* XPM */
static char * hide_prelight_xpm[] = {
"20 24 6 1",
" 	c #16161E",
".	c #292E42",
"+	c #1A1B26",
"@	c #939BBD",
"#	c #858BAA",
"$	c #23232E",
"                    ",
"....................",
"++++++++++++++++++++",
"++++++++++++++++++++",
"++++++++++++++++++++",
"++++++++++++++++++++",
"++++++++++++++++++++",
"++++++++++++++++++++",
"++++++++++++++++++++",
"++++++++++++++++++++",
"++++++++++++++++++++",
"++++++++++++++++++++",
"++++++@@@@@@@@++++++",
"++++++########++++++",
"++++++$$$$$$$$++++++",
"++++++++++++++++++++",
"++++++++++++++++++++",
"++++++++++++++++++++",
"++++++++++++++++++++",
"++++++++++++++++++++",
"++++++++++++++++++++",
"++++++++++++++++++++",
"++++++++++++++++++++",
"++++++++++++++++++++"};
