/* XPM */
static char * maximize_prelight_xpm[] = {
"20 24 7 1",
" 	c #16161E",
".	c #292E42",
"+	c #1A1B26",
"@	c #939BBD",
"#	c #858BAA",
"$	c #242530",
"%	c #60647C",
"                    ",
"....................",
"++++++++++++++++++++",
"++++++++++++++++++++",
"++++++++++++++++++++",
"++++++++++++++++++++",
"++++++++++++++++++++",
"++++++++++++++++++++",
"++++++++++++++++++++",
"+++++++++@@+++++++++",
"+++++++++##+++++++++",
"+++++++++##+++++++++",
"++++++@@@##@@@++++++",
"++++++########++++++",
"++++++$$$##$$$++++++",
"+++++++++##+++++++++",
"+++++++++%%+++++++++",
"+++++++++$$+++++++++",
"++++++++++++++++++++",
"++++++++++++++++++++",
"++++++++++++++++++++",
"++++++++++++++++++++",
"++++++++++++++++++++",
"++++++++++++++++++++"};
