/* XPM */
static char * maximize_active_xpm[] = {
"21 29 5 1",
"       c None",
"$      c #1a1b26 s active_color_2",
"@      c #16161e s active_shadow_2",
"#      c #c0caf5 s active_text_color",
".      c #292e42 s active_mid_2",
".....................",
".....................",
".....................",
".....................",
".....................",
".....................",
".....................",
".....................",
".....................",
".....................",
".....................",
"......#########......",
"......#########......",
"......##.....##......",
"......##.....##......",
"......##.....##......",
"......##.....##......",
"......##.....##......",
"......#########......",
"......#########......",
".....................",
".....................",
".....................",
".....................",
".....................",
".....................",
".....................",
".....................",
"....................."};
