/* XPM */
static char * menu_prelight_xpm[] = {
"20 24 23 1",
" 	c #16161E",
".	c #292E42",
"+	c #1A1B26",
"@	c #8187A5",
"#	c #9DA5C9",
"$	c #7E84A2",
"%	c #242530",
"&	c #9299BB",
"*	c #7A809C",
"=	c #23232E",
"-	c #2B2D39",
";	c #1A1B26",
">	c #858CAB",
",	c #8C93B3",
"'	c #2A2B37",
")	c #333442",
"!	c #838AA8",
"~	c #2B2C38",
"{	c #272833",
"]	c #414455",
"^	c #30323F",
"/	c #292A36",
"(	c #22232D",
"                    ",
"....................",
"++++++++++++++++++++",
"++++++++++++++++++++",
"++++++++++++++++++++",
"++++++++++++++++++++",
"++++++++++++++++++++",
"++++++++++++++++++++",
"++++++++++++++++++++",
"++++++++++++++++++++",
"++++++++++++++++++++",
"++++++@######$++++++",
"++++++%@&&&&*=++++++",
"++++++-;>,,$%+++++++",
"+++++++')!$;~+++++++",
"++++++++{]^/++++++++",
"+++++++++({+++++++++",
"++++++++++++++++++++",
"++++++++++++++++++++",
"++++++++++++++++++++",
"++++++++++++++++++++",
"++++++++++++++++++++",
"++++++++++++++++++++",
"++++++++++++++++++++"};
