/* XPM */
static char * shade_toggled_inactive_xpm[] = {
"20 24 4 1",
" 	c #16161E",
".	c #292E42",
"+	c #404353",
"@	c #9299BA",
"                    ",
"....................",
"++++++++++++++++++++",
"++++++++++++++++++++",
"++++++++++++++++++++",
"++++++++++++++++++++",
"++++++++++++++++++++",
"++++++++++++++++++++",
"++++++++++++++++++++",
"+++++++++@@+++++++++",
"+++++++++@@+++++++++",
"+++++++++@@+++++++++",
"+++++++++@@+++++++++",
"++++++@@@@@@@@++++++",
"+++++++@@@@@@+++++++",
"++++++++@@@@++++++++",
"+++++++++@@+++++++++",
"++++++++++++++++++++",
"++++++++++++++++++++",
"++++++++++++++++++++",
"++++++++++++++++++++",
"++++++++++++++++++++",
"++++++++++++++++++++",
"++++++++++++++++++++"};
