/* XPM */
static char * shade_toggled_prelight_xpm[] = {
"20 24 20 1",
" 	c #16161E",
".	c #292E42",
"+	c #1A1B26",
"@	c #7D83A1",
"#	c #8187A5",
"$	c #9DA5C9",
"%	c #242530",
"&	c #9299BB",
"*	c #7A809C",
"=	c #23232E",
"-	c #1A1B26",
";	c #868DAC",
">	c #8C93B3",
",	c #7F86A3",
"'	c #333442",
")	c #848AA9",
"!	c #292A36",
"~	c #2B2D39",
"{	c #424556",
"]	c #30323F",
"                    ",
"....................",
"++++++++++++++++++++",
"++++++++++++++++++++",
"++++++++++++++++++++",
"++++++++++++++++++++",
"++++++++++++++++++++",
"++++++++++++++++++++",
"++++++++++++++++++++",
"+++++++++@@+++++++++",
"+++++++++@@+++++++++",
"+++++++++@@+++++++++",
"+++++++++@@+++++++++",
"++++++#$@@@@$@++++++",
"++++++%#&@@&*=++++++",
"+++++++-;>>,%+++++++",
"++++++++'),!~+++++++",
"+++++++++{]+++++++++",
"++++++++++++++++++++",
"++++++++++++++++++++",
"++++++++++++++++++++",
"++++++++++++++++++++",
"++++++++++++++++++++",
"++++++++++++++++++++"};
