/* XPM */
static char * shade_prelight_xpm[] = {
"20 24 13 1",
" 	c #16161E",
".	c #292E42",
"+	c #1A1B26",
"@	c #848AA9",
"#	c #7F86A3",
"$	c #868DAC",
"%	c #8C93B3",
"&	c #8187A5",
"*	c #9299BB",
"=	c #7A809C",
"-	c #9DA5C9",
";	c #7D83A1",
">	c #242530",
"                    ",
"....................",
"++++++++++++++++++++",
"++++++++++++++++++++",
"++++++++++++++++++++",
"++++++++++++++++++++",
"++++++++++++++++++++",
"++++++++++++++++++++",
"++++++++++++++++++++",
"+++++++++@#+++++++++",
"++++++++$%%#++++++++",
"+++++++&*&=*=+++++++",
"++++++&-&&&;-;++++++",
"++++++>>>&&>>>++++++",
"+++++++++&&+++++++++",
"+++++++++&&+++++++++",
"+++++++++&&+++++++++",
"+++++++++>>+++++++++",
"++++++++++++++++++++",
"++++++++++++++++++++",
"++++++++++++++++++++",
"++++++++++++++++++++",
"++++++++++++++++++++",
"++++++++++++++++++++"};
