/* XPM */
static char * stick_toggled_prelight_xpm[] = {
"20 24 9 1",
" 	c #16161E",
".	c #292E42",
"+	c #1A1B26",
"@	c #939BBD",
"#	c #23232E",
"$	c #8F96B7",
"%	c #8D94B5",
"&	c #8B92B2",
"*	c #858BAA",
"                    ",
"....................",
"++++++++++++++++++++",
"++++++++++++++++++++",
"++++++++++++++++++++",
"++++++++++++++++++++",
"++++++++++++++++++++",
"++++++++++++++++++++",
"++++++++++++@+++++++",
"++++++++@@++@@++++++",
"+++++++@@@+@@@@+++++",
"++++++@@##+@@##+++++",
"++++++$$++$##+++++++",
"++++++%%++#+%%++++++",
"++++++&&++++&&++++++",
"++++++#******#++++++",
"+++++++#****#+++++++",
"++++++++####++++++++",
"++++++++++++++++++++",
"++++++++++++++++++++",
"++++++++++++++++++++",
"++++++++++++++++++++",
"++++++++++++++++++++",
"++++++++++++++++++++"};
