/* XPM */
static char * stick_inactive_xpm[] = {
"20 24 4 1",
" 	c #16161E",
".	c #292E42",
"+	c #1A1B26",
"@	c #9299BA",
"                    ",
"....................",
"++++++++++++++++++++",
"++++++++++++++++++++",
"++++++++++++++++++++",
"++++++++++++++++++++",
"++++++++++++++++++++",
"++++++++++++++++++++",
"++++++++++++++++++++",
"++++++++@@@@++++++++",
"+++++++@@@@@@+++++++",
"++++++@@++++@@++++++",
"++++++@@++++@@++++++",
"++++++@@++++@@++++++",
"++++++@@++++@@++++++",
"+++++++@@@@@@+++++++",
"++++++++@@@@++++++++",
"++++++++++++++++++++",
"++++++++++++++++++++",
"++++++++++++++++++++",
"++++++++++++++++++++",
"++++++++++++++++++++",
"++++++++++++++++++++",
"++++++++++++++++++++"};
